src/img/check.svg

<svg fill="none" height="12" viewBox="0 0 12 12" width="12" xmlns="http://www.w3.org/2000/svg"><path d="m10.35 3.85-5.5 5.5c-.1.1-.2.15-.35.15s-.25-.05-.35-.15l-2.5-2.5c-.2-.2-.2-.5 0-.7s.5-.2.7 0l2.15 2.15 5.15-5.15c.2-.2.5-.2.7 0s.2.5 0 .7z" fill="#6f6f6f"/></svg>

<svg width="12" height="12" viewBox="0 0 12 12" fill="none" 
  xmlns="http://www.w3.org/2000/svg">
  <path d="M10.35 3.85L4.85 9.35C4.75 9.45 4.65 9.5 4.5 9.5C4.35 9.5 4.25 9.45 4.15 9.35L1.65 6.85C1.45 6.65 1.45 6.35 1.65 6.15C1.85 5.95 2.15 5.95 2.35 6.15L4.5 8.3L9.65 3.15C9.85 2.95 10.15 2.95 10.35 3.15C10.55 3.35 10.55 3.65 10.35 3.85Z" fill="#6F6F6F"/>
</svg>
